!!!!SEGMENT: Ren1002a-Missa_Benedictus_Dominus_Deus-Kyrie.krn
!!!id: Ren1002a
!!!AGN: Mass; Kyrie
!!!voices: 4
!!!COM: Renaldo
!!!OPR: Missa Benedictus Dominus Deus
!!!OTL: Kyrie
**kern	**kern	**kern	**kern
*part4	*part3	*part2	*part1
*staff4	*staff3	*staff2	*staff1
*I"Bassus	*I"Tenor	*I"Altus	*I"Superius
*I'B	*I'T	*I'A	*I'S
*clefF4	*clefGv2	*clefG2	*clefG2
*k[b-]	*k[b-]	*k[b-]	*k[b-]
*F:	*F:	*F:	*F:
*M2/1	*M2/1	*M2/1	*M2/1
*met(C|)	*met(C|)	*met(C|)	*met(C|)
!!section: Kyrie I
!!!OMD: Kyrie I
=1	=1	=1	=1
0G	0G	0d	0g
=2	=2	=2	=2
1G	1B-y	1d	1g
1C	1c	1e	1g
=3	=3	=3	=3
0G	0d	0g	0b-y
=4	=4	=4	=4
2.D	1d	1f	2.a
4E	.	.	4g
2F	2c	2.f	2a
[2G	2B-y	.	[2b-y
.	.	4e	.
=5	=5	=5	=5
4G]	0G	4d	4b-]
4F	.	4c	4a
4E	.	1d	4g
4D	.	.	4f
1E	.	.	1g
.	.	2c#i	.
=6	=6	=6	=6
1D	1A	1d	1f
1G	1B-y	1d	1g
=7	=7	=7	=7
1.F	1.c	1.f	1.a
2F	2c	2f	2a
=8	=8	=8	=8
1F	1c	1f	1a
1BB-y	1d	[1f	1b-y
=9	=9	=9	=9
2.F	1.c	1f]	2.a
4G	.	.	4b-y
2A	.	2r	2cc
2D	2f	[2a	2dd
=10	=10	=10	=10
2A	2e	2a]	2cc
2B-y	2d	2g	1dd
1A	1e	1a	.
.	.	.	2cc#i
=11	=11	=11	=11
1D	1d	1f	0dd
1r	1r	2r	.
.	.	2g	.
=12	=12	=12	=12
0r	0r	2g	2r
.	.	2g	2dd
.	.	1f	2dd
.	.	.	2dd
=13	=13	=13	=13
1r	1r	1e	1cc
1G	2r	2.d	1b-y
.	2d	.	.
.	.	4e	.
=14	=14	=14	=14
1F	2d	1f	1a
.	2d	.	.
1E	1c	1r	1r
=15	=15	=15	=15
2.D	1B-y	1r	2.f
4E	.	.	4g
2F	2A	[1f	2a
[2BB-y	[2d	.	[2b-y
=16	=16	=16	=16
2BB-]	2d]	2f]	2b-]
2C	4c	2e	4a
.	4B-y	.	4g
2D	2A	2d	2f
2E-i	2G	2c	[2g
=17	=17	=17	=17
1D	1A	1d	2g]
.	.	.	2f#i
2r	1G	1d	1g
2G	.	.	.
=18	=18	=18	=18
2G	0r	2r	0r
2G	.	2d	.
1F	.	2d	.
.	.	2d	.
=19	=19	=19	=19
1E	1r	1c	0r
[1D	2r	1B-y	.
.	2d	.	.
=20	=20	=20	=20
1D]	2d	1A	2r
.	2d	.	2a
1F	1c	1A	2a
.	.	.	2a
=21	=21	=21	=21
1G	1B-y	0d	1g
1D	1A	.	1f
=22	=22	=22	=22
1r	1.A	2.c	1e
.	.	4d	.
2r	.	2e	2r
2D	2F	2f	2a
=23	=23	=23	=23
1G	1B-y	1d	2b-y
.	.	.	2b-y
[1C	1G	[1e	2.cc
.	.	.	4b-y
=24	=24	=24	=24
1C]	2.c	1e]	2a
.	.	.	2g
.	4B-y	.	.
2D	2A	2d	2f
2E	2G	2c	[2g
=25	=25	=25	=25
1D	1A	1d	2g]
.	.	.	2f#i
1GG	[1G	[1d	1g
=26	=26	=26	=26
2r	1G]	1d]	2r
1G	.	.	1b-y
.	2r	2r	.
2F	[2d	[2f	2a
=27	=27	=27	=27
2D	2d]	2f]	2f
1F	2c	2f	1a
.	2A	2c	.
2E-i	[2c	[2e-X	2g
=28	=28	=28	=28
2C	2c]	2e-]	2e-i
1E-i	2B-y	2e-i	1g
.	2G	2B-y	.
2D	[2B-y	[2d	2f
=29	=29	=29	=29
2BB-y	2B-]	2d]	2.d
2C	2A	2c	.
.	.	.	4e
1D	1F	2A	4f
.	.	.	4g
.	.	[2d	[2a
=30	=30	=30	=30
1E-i	1G	2d]	4a]
.	.	.	4g
.	.	2c	1g
1D	1A	1d	.
.	.	.	2f#i
=31	=31	=31	=31
00GG	00G	00d	00g
=32||	=32||	=32||	=32||
*M2/1	*M2/1	*M2/1	*M2/1
*met(C|)	*met(C|)	*met(C|)	*met(C|)
!!section: Christe
!!!OMD: Christe
0r	1G	0r	1r
.	[1d	.	1d
=33	=33	=33	=33
0r	2d]	0r	1.a
.	2d	.	.
.	2d	.	.
.	4c	.	2a
.	4B-y	.	.
=34	=34	=34	=34
0r	2c	0r	2a
.	2d	.	4g
.	.	.	4f
.	2e-i	.	2g
.	[2d	.	2a
=35	=35	=35	=35
0r	2d]	0r	2b-y
.	4c	.	1a
.	4B-y	.	.
.	1A	.	.
.	.	.	4g
.	.	.	4f
=36	=36	=36	=36
0r	2r	0r	1e
.	2A	.	.
.	2A	.	2r
.	2A	.	2e
=37	=37	=37	=37
0r	2c	0r	2e
.	4B-y	.	2e
.	4A	.	.
.	2B-y	.	2.g
.	2c	.	.
.	.	.	8fL
.	.	.	8eJ
=38	=38	=38	=38
0r	1d	0r	2f
.	.	.	2g
.	2c	.	2a
.	2d	.	[2b-y
=39	=39	=39	=39
0r	1G	0r	4b-]
.	.	.	4a
.	.	.	1g
.	1A	.	.
.	.	.	2f#i
=40	=40	=40	=40
1C	1G	1r	1g
[1G	1r	1G	1r
=41	=41	=41	=41
2G]	0r	1.d	0r
2G	.	.	.
2G	.	.	.
4F	.	2d	.
4E	.	.	.
=42	=42	=42	=42
2F	0r	2d	0r
2G	.	4c	.
.	.	4B-y	.
2A	.	2c	.
[2G	.	2d	.
=43	=43	=43	=43
2G]	0r	2e-i	0r
4F	.	1d	.
4E	.	.	.
1D	.	.	.
.	.	4c	.
.	.	4B-y	.
=44	=44	=44	=44
2r	0r	1A	0r
2D	.	.	.
2D	.	2r	.
2D	.	2A	.
=45	=45	=45	=45
2F	0r	2A	0r
4E	.	2A	.
4D	.	.	.
2E	.	2c	.
2F	.	4B-y	.
.	.	4A	.
=46	=46	=46	=46
1G	0r	2B-y	0r
.	.	2c	.
2F	.	2d	.
2G	.	[2e-i	.
=47	=47	=47	=47
1C	1r	4e-]	1r
.	.	4d	.
.	.	1c	.
1D	2r	.	1f
.	2F	2BnXi	.
=48	=48	=48	=48
2C	2G	1c	2e
1F	1A	.	2f
.	.	2A	1a
4E	4G	2d	.
4D	4F	.	.
=49	=49	=49	=49
1E	1G	2B-y	1g
.	.	2c	.
[1D	1A	1d	1f
=50	=50	=50	=50
1D]	2r	1.A	2.d
.	2A	.	.
.	.	.	4e
1r	2F	.	2f
.	2G	4B-y	2d
.	.	4c	.
=51	=51	=51	=51
1D	1A	0d	1f
2BB-y	1B-y	.	[1f
2C	.	.	.
=52	=52	=52	=52
1D	2r	2A	1f]
.	1A	1d	.
1E-i	.	.	1g
.	2G	2c	.
=53	=53	=53	=53
1D	1A	[0dl	[0fl
2.BB-y	1B-y	.	.
4C	.	.	.
=54	=54	=54	=54
00D	00A	00d]	00f]
=55||	=55||	=55||	=55||
*M2/1	*M2/1	*M2/1	*M2/1
*met(C|)	*met(C|)	*met(C|)	*met(C|)
!!section: Kyrie II
!!!OMD: Kyrie II
0r	0r	0d	0a
=56	=56	=56	=56
0r	0r	1g	1b-y
.	.	1f	1cc
=57	=57	=57	=57
0D	0A	0d	0dd
=58	=58	=58	=58
1G	1B-y	2.d	1r
.	.	4e	.
1F	1c	1f	2r
.	.	.	2a
=59	=59	=59	=59
1D	1d	2f	2a
.	.	2f	2a
1r	1r	1g	1b-y
=60	=60	=60	=60
1r	1r	1e	1cc
2r	2r	[1d	[1dd
2D	2A	.	.
=61	=61	=61	=61
2D	2A	1d]	1dd]
2D	2A	.	.
1G	1B-y	1d	1g
=62	=62	=62	=62
1F	1c	2r	1a
.	.	2A	.
1D	[1d	2A	1f
.	.	2A	.
=63	=63	=63	=63
1G	2d]	1B-y	1b-y
.	2e	.	.
2F	[1f	2c	2a
[2BB-y	.	[2d	[2dd
=64	=64	=64	=64
4BB-]	2f]	4d]	2dd]
4C	.	4e	.
4D	4e	1f	4cc
4E	4d	.	4b-y
2F	2c	.	2a
2G	2B-y	2e	[2b-y
=65	=65	=65	=65
1F	1c	1f	2b-]
.	.	.	2a
1BB-y	1B-y	[1f	1b-y
=66	=66	=66	=66
2F	2A	2f]	2r
2.G	2.B-y	2.d	1b-y
4F	4A	4e	.
4E	4G	2f	2a
4D	4F	.	.
=67	=67	=67	=67
1E	1G	2B-y	1g
.	.	2c	.
1D	2.A	1d	[1f
.	4B-y	.	.
=68	=68	=68	=68
0r	4c	0r	2f]
.	4d	.	.
.	2.e	.	2.g
.	4d	.	4f
.	[2d	.	4e
.	.	.	4d
=69	=69	=69	=69
0r	2d]	1G	1e
.	2c#i	.	.
.	[1d	1B-y	1d
=70	=70	=70	=70
1D	1d]	2.A	0r
.	.	4B-y	.
2E	1r	4c	.
.	.	4d	.
2C	.	[2e	.
=71	=71	=71	=71
1D	0r	4e]	0r
.	.	4d	.
.	.	1d	.
1E	.	.	.
.	.	2c#i	.
=72	=72	=72	=72
1D	2r	1d	1r
.	1d	.	.
1r	.	1r	1a
.	2c	.	.
=73	=73	=73	=73
0r	1e	0r	2g
.	.	.	1b-y
.	1d	.	.
.	.	.	[2a
=74	=74	=74	=74
0r	2c	0r	2a]
.	1e	.	2g
.	.	.	1b-y
.	2d	.	.
=75	=75	=75	=75
1r	2c	1r	2a
.	2B-y	.	1g
1D	1A	1d	.
.	.	.	2f#i
=76	=76	=76	=76
1E	1G	2.B-y	1g
.	.	4c	.
[1D	1A	1d	1f
=77	=77	=77	=77
2D]	0r	1A	0r
2C	.	.	.
1E	.	2G	.
.	.	[2B-y	.
=78	=78	=78	=78
1D	0r	2B-]	0r
.	.	1A	.
2C	.	.	.
[2E	.	2G	.
=79	=79	=79	=79
2E]	0r	1B-y	0r
2D	.	.	.
2C	.	2A	.
2BB-y	.	[2G	.
=80	=80	=80	=80
1AA	1r	2G]	1a
.	.	2F#i	.
1GG	1d	1G	2b-y
.	.	.	4a
.	.	.	4g
=81	=81	=81	=81
2D	2A	2r	2f
2C	2.c	2.G	1g
1E	.	.	.
.	4B-y	4A	.
.	2G	4B-y	2e
.	.	4c	.
=82	=82	=82	=82
2D	2A	2d	2f
2C	2.c	2.e-X	1g
1E	.	.	.
.	4B-y	4d	.
.	4A	4B-y	4f
.	4G	4c	4e
=83	=83	=83	=83
1D	1A	1d	1f
[1GGl	[1Gl	[1dl	[1gl
=84	=84	=84	=84
00GG]	00G]	00d]	00g]
==	==	==	==
*-	*-	*-	*-
!!!system-decoration: [*]
!!!RDF**kern: i = editorial accidental
!!!RDF**kern: l = terminal long
!!!ENC: Benjamin Ory
!!!END: 2025/1/3
!!!EED: Benjamin Ory
!!!EEV: 2025/02/23
!!!YEC: Copyright 2025 Benjamin Ory, All Rights Reserved
!!!ONB: Translated from MusicXML on 2025/02/23